svg/100/outlined/roller_skating-fill.svg

<svg xmlns="http://www.w3.org/2000/svg" width="48" height="48" viewBox="0 -960 960 960"><path d="M186-349v-545h284v101h-91q-5.2 0-9.1 4.2-3.9 4.2-3.9 8.943 0 4.743 3.9 8.3Q373.8-768 379-768h91.099v29.286q0 6.321.45 12.976Q471-719.083 473-713h-94q-5.2 0-9.1 4.2-3.9 4.2-3.9 8.943 0 4.743 3.9 8.3Q373.8-688 379-688h102.615Q494-664 514.5-647.6T561-623l108 30q43.241 11.418 69.121 46.014Q764-512.39 764-468.433V-349H186Zm10.941 283Q159-66 132.5-92.559t-26.5-64.5Q106-195 132.559-221.5t64.5-26.5Q235-248 261.5-221.441t26.5 64.5Q288-119 261.441-92.5t-64.5 26.5Zm566 0Q725-66 698.5-92.559t-26.5-64.5Q672-195 698.559-221.5t64.5-26.5Q801-248 827.5-221.441t26.5 64.5Q854-119 827.441-92.5t-64.5 26.5Zm-283 0Q442-66 415.5-92.559t-26.5-64.5Q389-195 415.559-221.5t64.5-26.5Q518-248 544.5-221.441t26.5 64.5Q571-119 544.441-92.5t-64.5 26.5Z"/></svg>

<svg xmlns="http://www.w3.org/2000/svg" width="48" height="48" viewBox="0 -960 960 960"><path d="M186-349v-545h284v101h-91q-5.2 0-9.1 4.2-3.9 4.2-3.9 8.94 0 4.75 3.9 8.3 3.9 3.56 9.1 3.56h91.1v29.29q0 6.32.45 12.97.45 6.66 2.45 12.74h-94q-5.2 0-9.1 4.2-3.9 4.2-3.9 8.94 0 4.75 3.9 8.3 3.9 3.56 9.1 3.56h102.62q12.38 24 32.88 40.4T561-623l108 30q43.24 11.42 69.12 46.01Q764-512.39 764-468.43V-349H186Zm10.94 283Q159-66 132.5-92.56t-26.5-64.5q0-37.94 26.56-64.44t64.5-26.5q37.94 0 64.44 26.56t26.5 64.5q0 37.94-26.56 64.44T196.94-66Zm566 0Q725-66 698.5-92.56t-26.5-64.5q0-37.94 26.56-64.44t64.5-26.5q37.94 0 64.44 26.56t26.5 64.5q0 37.94-26.56 64.44T762.94-66Zm-283 0Q442-66 415.5-92.56t-26.5-64.5q0-37.94 26.56-64.44t64.5-26.5q37.94 0 64.44 26.56t26.5 64.5q0 37.94-26.56 64.44T479.94-66Z"/></svg>
